X:35
T: Junker Balzer
N: A0393
O: Europa, Mitteleuropa, Deutschland
N: Souterliedekens 1540 ad Ps. 46
R: Romanze, Ballade, Lied, religioeses Lied
M: 6/2
L: 1/4
K: D
D2D2D2 | A4B2=c2B4 | A4z2
G2A2B2 | =c2A4G2=F4 | E4z2
B2 | =c2B2A2G2 | E3DE=FG4FE | D4=C4 | z2
A2A2A2 | =F4D2G4F2 | G4
B4 | =c4A2d4cB | A6G=FE4 | D6

@@@ Tune index: 348
